img/title-icon.svg

<svg width="180" height="173" viewBox="0 0 180 173" fill="none" xmlns="http://www.w3.org/2000/svg">
<path d="M115 32.5C115 25.05 121.06 19 128.5 19C135.94 19 142 25.06 142 32.5C142 39.94 135.94 46 128.5 46C121.06 46 115 39.95 115 32.5ZM118.98 32.5C118.98 37.75 123.25 42.02 128.5 42.02C133.75 42.02 138.02 37.75 138.02 32.5C138.02 27.25 133.75 22.98 128.5 22.98C123.25 22.98 118.98 27.25 118.98 32.5Z" fill="#FFA2A4"/>
<path d="M24.3393 89.9312C28.6869 117.898 30.8862 138.281 47.0869 139.27C63.2876 140.26 64.1364 127.419 62.5357 120.874C61.7921 114.936 67.4136 102.372 95.8487 99.6199C131.393 96.1802 121.626 106.098 141.603 111.632C161.579 117.165 164.681 103.349 152.333 68.9438C142.454 41.4198 133.047 27.9727 124.098 30.2056C108.676 34.0534 71.8851 42.9782 48.0944 47.8942C18.3559 54.0393 19.9918 61.9642 24.3393 89.9312Z" fill="url(#paint0_linear_1159_3)"/>
<path d="M27.6779 69.7254L48.9254 63.69L50.6085 69.6156L35.4983 73.9077L37.3859 80.5528L50.7608 76.7537L52.4439 82.6793L39.069 86.4784L40.9806 93.2082L56.6834 88.7478L58.3666 94.6734L36.5266 100.877L27.6779 69.7254ZM63.8641 73.1231L65.2674 76.2923L65.0986 76.0201C65.419 74.6788 66.0715 73.4872 67.0563 72.4451C68.033 71.3748 69.382 70.5952 71.1032 70.1063C72.8527 69.6094 74.4541 69.7186 75.9076 70.434C77.3813 71.1132 78.3646 72.2671 78.8577 73.8957L82.7891 87.7361L76.8635 89.4193L73.5573 77.7798C73.2967 76.9695 72.8866 76.3846 72.3271 76.0251C71.7878 75.6294 71.0384 75.5678 70.079 75.8404C69.1761 76.0968 68.4702 76.6175 67.9613 77.4025C67.4524 78.1874 67.1588 79.1399 67.0805 80.2599C67.0022 81.3799 67.1515 82.603 67.5282 83.9292L69.6682 91.4631L63.7426 93.1463L58.4887 74.65L63.8641 73.1231ZM92.6377 94.5899L88.1633 91.8814C88.8335 91.0202 89.2661 90.074 89.4611 89.0428C89.6843 88.0036 89.6115 86.835 89.2428 85.537L84.0851 67.3793L90.0107 65.6962L95.2646 84.1925C95.8898 86.3934 96.0117 88.3256 95.6304 89.9891C95.2571 91.6808 94.2595 93.2144 92.6377 94.5899ZM82.01 60.879C81.7615 60.0042 81.8957 59.1885 82.4126 58.4318C82.9578 57.6671 83.6254 57.1725 84.4154 56.9481C85.2055 56.7237 86.0052 56.8015 86.8145 57.1815C87.652 57.5535 88.195 58.1768 88.4435 59.0515C88.6919 59.9263 88.5577 60.742 88.0408 61.4987C87.5441 62.2192 86.9007 62.6916 86.1106 62.916C85.3206 63.1404 84.4967 63.0848 83.639 62.749C82.8014 62.3771 82.2585 61.7537 82.01 60.879ZM97.224 73.39C96.687 71.4994 96.6435 69.6822 97.0934 67.9382C97.5716 66.1862 98.4946 64.6585 99.8625 63.3552C101.222 62.0236 102.946 61.0612 105.034 60.4681C107.151 59.867 109.109 59.7833 110.909 60.2172C112.702 60.6229 114.22 61.4573 115.463 62.7204C116.734 63.9754 117.638 65.5482 118.175 67.4388C118.712 69.3293 118.774 71.1567 118.36 72.9208C117.967 74.6488 117.118 76.1705 115.815 77.4861C114.511 78.8016 112.773 79.768 110.6 80.3852C108.569 80.9623 106.637 81.0842 104.804 80.751C102.999 80.4097 101.433 79.6196 100.105 78.3806C98.7776 77.1416 97.8172 75.478 97.224 73.39ZM103.204 71.7371C103.476 72.6965 103.922 73.5151 104.542 74.193C105.153 74.8426 105.862 75.297 106.667 75.5561C107.473 75.8152 108.299 75.8246 109.145 75.5841C110.076 75.3196 110.816 74.8654 111.365 74.2216C111.914 73.5778 112.264 72.8228 112.414 71.9568C112.557 71.0625 112.492 70.1357 112.219 69.1763C111.939 68.1887 111.507 67.366 110.924 66.7084C110.34 66.0507 109.646 65.5923 108.841 65.3332C108.035 65.0741 107.167 65.0768 106.236 65.3413C105.389 65.5818 104.691 66.0239 104.143 66.6677C103.594 67.3116 103.23 68.0705 103.051 68.9446C102.872 69.8187 102.923 70.7495 103.204 71.7371ZM128.922 84.2374L133.461 53.3542L138.794 51.8393L134.636 82.6144L128.922 84.2374ZM131.374 74.0271L117.038 58.019L123.683 56.1314L135.103 69.7658L131.374 74.0271Z" fill="#F2F2F2"/>
<defs>
<linearGradient id="paint0_linear_1159_3" x1="124.991" y1="13.1174" x2="-4.49523" y2="344.617" gradientUnits="userSpaceOnUse">
<stop stop-color="#2E2594"/>
<stop offset="1" stop-color="#F73B6C"/>
</linearGradient>
</defs>
</svg>

<svg width="180" height="173" fill="none" xmlns="http://www.w3.org/2000/svg"><path d="M115 32.5c0-7.45 6.06-13.5 13.5-13.5S142 25.06 142 32.5 135.94 46 128.5 46 115 39.95 115 32.5Zm3.98 0c0 5.25 4.27 9.52 9.52 9.52s9.52-4.27 9.52-9.52-4.27-9.52-9.52-9.52-9.52 4.27-9.52 9.52Z" fill="#FFA2A4"/><path d="M24.34 89.931c4.347 27.967 6.546 48.35 22.747 49.339 16.2.99 17.05-11.851 15.449-18.396-.744-5.938 4.878-18.502 33.313-21.254 35.544-3.44 25.777 6.478 45.754 12.012 19.976 5.533 23.078-8.283 10.73-42.688-9.879-27.524-19.286-40.971-28.235-38.738-15.422 3.847-52.213 12.772-76.004 17.688-29.738 6.145-28.102 14.07-23.755 42.037Z" fill="url(#a)"/><path d="m27.678 69.725 21.247-6.035 1.684 5.926-15.11 4.292 1.887 6.645 13.375-3.8 1.683 5.926-13.375 3.8 1.912 6.73 15.702-4.461 1.684 5.925-21.84 6.204-8.85-31.152Zm36.186 3.398 1.403 3.17-.168-.273c.32-1.341.972-2.533 1.957-3.575.977-1.07 2.326-1.85 4.047-2.339 1.75-.497 3.351-.387 4.805.328 1.473.68 2.457 1.833 2.95 3.462l3.931 13.84-5.925 1.683-3.307-11.64c-.26-.81-.67-1.394-1.23-1.754-.54-.396-1.289-.457-2.248-.185a3.625 3.625 0 0 0-2.118 1.563c-.509.784-.802 1.737-.88 2.857-.079 1.12.07 2.343.447 3.67l2.14 7.533-5.925 1.683-5.254-18.496 5.375-1.527ZM92.638 94.59l-4.475-2.709a6.551 6.551 0 0 0 1.298-2.838c.223-1.04.15-2.208-.218-3.506l-5.158-18.158 5.926-1.683 5.254 18.496c.625 2.201.747 4.134.365 5.797-.373 1.692-1.37 3.225-2.992 4.6ZM82.01 60.879c-.249-.875-.114-1.69.403-2.447.545-.765 1.212-1.26 2.002-1.484.79-.224 1.59-.147 2.4.233.837.373 1.38.996 1.629 1.87.248.875.114 1.691-.403 2.448-.497.72-1.14 1.193-1.93 1.417-.79.224-1.614.169-2.472-.167-.838-.372-1.38-.995-1.629-1.87ZM97.224 73.39c-.537-1.89-.58-3.708-.13-5.452.478-1.752 1.4-3.28 2.769-4.583 1.359-1.331 3.083-2.294 5.171-2.887 2.117-.601 4.075-.685 5.875-.25 1.793.405 3.311 1.24 4.554 2.502 1.271 1.255 2.175 2.828 2.712 4.719.537 1.89.599 3.718.185 5.482-.393 1.728-1.242 3.25-2.545 4.565-1.304 1.316-3.042 2.282-5.215 2.9-2.031.576-3.963.698-5.796.365a9.275 9.275 0 0 1-4.699-2.37c-1.327-1.24-2.288-2.903-2.881-4.991Zm5.98-1.653c.272.96.718 1.778 1.338 2.456a4.982 4.982 0 0 0 2.125 1.363c.806.26 1.632.269 2.478.028.931-.264 1.671-.719 2.22-1.362a4.644 4.644 0 0 0 1.049-2.265c.143-.894.078-1.821-.195-2.78-.28-.988-.712-1.811-1.295-2.469a4.655 4.655 0 0 0-2.083-1.375c-.806-.259-1.674-.256-2.605.008a4.18 4.18 0 0 0-2.093 1.327 4.987 4.987 0 0 0-1.092 2.277c-.179.874-.128 1.805.153 2.792Zm25.718 12.5 4.539-30.883 5.333-1.515-4.158 30.775-5.714 1.623Zm2.452-10.21L117.038 58.02l6.645-1.888 11.42 13.635-3.729 4.261Z" fill="#F2F2F2"/><defs><linearGradient id="a" x1="124.991" y1="13.117" x2="-4.495" y2="344.617" gradientUnits="userSpaceOnUse"><stop stop-color="#2E2594"/><stop offset="1" stop-color="#F73B6C"/></linearGradient></defs></svg>
